icon-themes/sifr_svg/cmd/pl/sc_underline.svg

<svg xmlns="http://www.w3.org/2000/svg" viewBox="0 0 16 16">
<path
   style="fill:#555753"
   d="M 4,2 V 12 H 6 V 8 H 9 C 10.656854,8 12,6.6568542 12,5 12,3.3431458 10.656854,2 9,2 H 6 Z m 2,2 h 3 c 0.5522847,0 1,0.4477153 1,1 0,0.5522847 -0.4477153,1 -1,1 H 6 Z m -4,9 v 2 h 12 v -2 z"
   />
</svg>

<svg viewBox="0 0 16 16" xmlns="http://www.w3.org/2000/svg"><path d="m4 2v10h2v-4h3c1.656854 0 3-1.3431458 3-3s-1.343146-3-3-3h-3zm2 2h3c.5522847 0 1 .4477153 1 1s-.4477153 1-1 1h-3zm-4 9v2h12v-2z" fill="#555753"/></svg>
